icons/Paperclip.svg

<svg width="24" height="24" viewBox="0 0 24 24" fill="none" xmlns="http://www.w3.org/2000/svg">
<path fill-rule="evenodd" clip-rule="evenodd" d="M14,3.75c-1.7949,0 -3.25,1.45507 -3.25,3.25v8c0,0.6904 0.5596,1.25 1.25,1.25c0.6904,0 1.25,-0.5596 1.25,-1.25v-7.5c0,-0.41421 0.3358,-0.75 0.75,-0.75c0.4142,0 0.75,0.33579 0.75,0.75v7.5c0,1.5188 -1.2312,2.75 -2.75,2.75c-1.5188,0 -2.75,-1.2312 -2.75,-2.75v-8c0,-2.62335 2.1266,-4.75 4.75,-4.75c2.6234,0 4.75,2.12665 4.75,4.75v8c0,3.7279 -3.0221,6.75 -6.75,6.75c-3.72792,0 -6.75,-3.0221 -6.75,-6.75v-4c0,-0.4142 0.33579,-0.75 0.75,-0.75c0.41421,0 0.75,0.3358 0.75,0.75v4c0,2.8995 2.35051,5.25 5.25,5.25c2.8995,0 5.25,-2.3505 5.25,-5.25v-8c0,-1.79493 -1.4551,-3.25 -3.25,-3.25z" fill="#002B51"/>
</svg>

<svg width="24" height="24" viewBox="0 0 24 24" fill="none" xmlns="http://www.w3.org/2000/svg">
<path fill-rule="evenodd" clip-rule="evenodd" d="M14 3.75C12.2051 3.75 10.75 5.20507 10.75 7V15C10.75 15.6904 11.3096 16.25 12 16.25C12.6904 16.25 13.25 15.6904 13.25 15V7.5C13.25 7.08579 13.5858 6.75 14 6.75C14.4142 6.75 14.75 7.08579 14.75 7.5V15C14.75 16.5188 13.5188 17.75 12 17.75C10.4812 17.75 9.25 16.5188 9.25 15V7C9.25 4.37665 11.3766 2.25 14 2.25C16.6234 2.25 18.75 4.37665 18.75 7V15C18.75 18.7279 15.7279 21.75 12 21.75C8.27208 21.75 5.25 18.7279 5.25 15V11C5.25 10.5858 5.58579 10.25 6 10.25C6.41421 10.25 6.75 10.5858 6.75 11V15C6.75 17.8995 9.10051 20.25 12 20.25C14.8995 20.25 17.25 17.8995 17.25 15V7C17.25 5.20507 15.7949 3.75 14 3.75Z" fill="#002B51"/>
</svg>
